file/acrobat-pro.svg

<svg clip-rule="evenodd" fill-rule="evenodd" stroke-linejoin="round" stroke-miterlimit="1.41421" viewBox="0 0 560 400" xmlns="http://www.w3.org/2000/svg" xmlns:xlink="http://www.w3.org/1999/xlink"><radialGradient id="a" cx="0" cy="0" gradientTransform="matrix(59.7634 0 0 59.9227 40.7096 35.0825)" gradientUnits="userSpaceOnUse" r="1"><stop offset="0" stop-color="#1e110e" stop-opacity=".85"/><stop offset=".77" stop-color="#1e110e"/><stop offset="1" stop-color="#1e110e"/></radialGradient><linearGradient id="b" gradientUnits="userSpaceOnUse" x1="17.0018" x2="84.6638" y1="49.5819" y2="49.5819"><stop offset="0" stop-color="#fff"/><stop offset=".14" stop-color="#fff"/><stop offset="1" stop-color="#eaecea"/></linearGradient><g transform="matrix(2.7 0 0 2.7 145 65)"><path d="m4.2 5.3h91.7v89.4h-91.7z" fill="url(#a)"/><g fill-rule="nonzero"><path d="m83.5 58.9c-2-2.1-6.1-3.3-11.9-3.3-3.1 0-6.7.3-10.6 1-2.2-2.1-4.4-4.6-6.5-7.5-1.5-2-2.8-4.2-4-6.3 2.3-7 3.4-12.7 3.4-16.8 0-4.6-1.7-9.4-6.6-9.4-1.5 0-3 .9-3.8 2.2-2.2 3.9-1.2 12.4 2.6 20.8-1.4 4.2-2.9 8.2-4.8 12.7-1.6 3.8-3.5 7.7-5.4 11.3-11 4.4-18.1 9.5-18.8 13.5-.3 1.5.2 2.9 1.3 4 .4.3 1.8 1.5 4.2 1.5 7.3 0 15-11.8 18.9-18.9 3-1 6-1.9 9-2.8 3.3-.9 6.6-1.6 9.6-2.1 7.7 6.9 14.5 8 17.9 8 4.2 0 5.7-1.7 6.2-3.1.8-1.8.2-3.8-.7-4.8zm-3.9 2.9c-.3 1.5-1.8 2.5-3.9 2.5-.6 0-1.1-.1-1.7-.2-3.8-.9-7.4-2.8-11-5.8 3.5-.6 6.5-.7 8.4-.7 2.1 0 3.9.1 5.1.4 1.4.3 3.6 1.2 3.1 3.8zm-21.2-4.7c-2.6.5-5.4 1.1-8.3 1.9-2.3.6-4.7 1.3-7.1 2.1 1.3-2.5 2.4-4.9 3.4-7.2 1.2-2.8 2.2-5.7 3.2-8.4 1 1.7 2.1 3.4 3.2 4.9 1.8 2.4 3.7 4.7 5.6 6.7zm-13.1-37.2c.4-.8 1.2-1.2 1.9-1.2 2.1 0 2.5 2.4 2.5 4.3 0 3.2-1 8.1-2.7 13.7-3-7.8-3.2-14.3-1.7-16.8zm-11 46.6c-5.1 8.4-10 13.6-13 13.6-.6 0-1.1-.2-1.5-.5-.6-.6-.9-1.3-.7-2.1.6-3 6.3-7.2 15.2-11z" fill="url(#b)"/><path d="m95.6 5.6v88.9h-91.2v-88.9zm4.4-4.5h-100v97.8h100z" fill="#ee3d23"/></g></g></svg>

<?xml version="1.0" encoding="UTF-8" standalone="no"?>
<!DOCTYPE svg PUBLIC "-//W3C//DTD SVG 1.1//EN" "http://www.w3.org/Graphics/SVG/1.1/DTD/svg11.dtd">
<svg width="100%" height="100%" viewBox="0 0 560 400" version="1.1" xmlns="http://www.w3.org/2000/svg" xmlns:xlink="http://www.w3.org/1999/xlink" xml:space="preserve" xmlns:serif="http://www.serif.com/" style="fill-rule:evenodd;clip-rule:evenodd;stroke-linejoin:round;stroke-miterlimit:1.41421;">
    <g transform="matrix(2.7,0,0,2.7,145,65)">
        <rect x="4.2" y="5.3" width="91.7" height="89.4" style="fill:url(#_Radial1);"/>
        <path d="M83.5,58.9C81.5,56.8 77.4,55.6 71.6,55.6C68.5,55.6 64.9,55.9 61,56.6C58.8,54.5 56.6,52 54.5,49.1C53,47.1 51.7,44.9 50.5,42.8C52.8,35.8 53.9,30.1 53.9,26C53.9,21.4 52.2,16.6 47.3,16.6C45.8,16.6 44.3,17.5 43.5,18.8C41.3,22.7 42.3,31.2 46.1,39.6C44.7,43.8 43.2,47.8 41.3,52.3C39.7,56.1 37.8,60 35.9,63.6C24.9,68 17.8,73.1 17.1,77.1C16.8,78.6 17.3,80 18.4,81.1C18.8,81.4 20.2,82.6 22.6,82.6C29.9,82.6 37.6,70.8 41.5,63.7C44.5,62.7 47.5,61.8 50.5,60.9C53.8,60 57.1,59.3 60.1,58.8C67.8,65.7 74.6,66.8 78,66.8C82.2,66.8 83.7,65.1 84.2,63.7C85,61.9 84.4,59.9 83.5,58.9ZM79.6,61.8C79.3,63.3 77.8,64.3 75.7,64.3C75.1,64.3 74.6,64.2 74,64.1C70.2,63.2 66.6,61.3 63,58.3C66.5,57.7 69.5,57.6 71.4,57.6C73.5,57.6 75.3,57.7 76.5,58C77.9,58.3 80.1,59.2 79.6,61.8ZM58.4,57.1C55.8,57.6 53,58.2 50.1,59C47.8,59.6 45.4,60.3 43,61.1C44.3,58.6 45.4,56.2 46.4,53.9C47.6,51.1 48.6,48.2 49.6,45.5C50.6,47.2 51.7,48.9 52.8,50.4C54.6,52.8 56.5,55.1 58.4,57.1ZM45.3,19.9C45.7,19.1 46.5,18.7 47.2,18.7C49.3,18.7 49.7,21.1 49.7,23C49.7,26.2 48.7,31.1 47,36.7C44,28.9 43.8,22.4 45.3,19.9ZM34.3,66.5C29.2,74.9 24.3,80.1 21.3,80.1C20.7,80.1 20.2,79.9 19.8,79.6C19.2,79 18.9,78.3 19.1,77.5C19.7,74.5 25.4,70.3 34.3,66.5Z" style="fill:url(#_Linear2);fill-rule:nonzero;"/>
        <path d="M95.6,5.6L95.6,94.5L4.4,94.5L4.4,5.6L95.6,5.6M100,1.1L0,1.1L0,98.9L100,98.9L100,1.1Z" style="fill:rgb(238,61,35);fill-rule:nonzero;"/>
    </g>
    <defs>
        <radialGradient id="_Radial1" cx="0" cy="0" r="1" gradientUnits="userSpaceOnUse" gradientTransform="matrix(59.7634,0,0,59.9227,40.7096,35.0825)"><stop offset="0" style="stop-color:rgb(30,17,14);stop-opacity:0.85"/><stop offset="0.77" style="stop-color:rgb(30,17,14);stop-opacity:1"/><stop offset="1" style="stop-color:rgb(30,17,14);stop-opacity:1"/></radialGradient>
        <linearGradient id="_Linear2" x1="0" y1="0" x2="1" y2="0" gradientUnits="userSpaceOnUse" gradientTransform="matrix(67.662,0,0,67.662,17.0018,49.5819)"><stop offset="0" style="stop-color:white;stop-opacity:1"/><stop offset="0.14" style="stop-color:white;stop-opacity:1"/><stop offset="1" style="stop-color:rgb(234,236,234);stop-opacity:1"/></linearGradient>
    </defs>
</svg>
